!!!COM:	Bach, Johann Sebastian
!!!CDT:	1685/02/21/-1750/07/28/
!!!OTL@@DE:	Wie sch&ouml;n leuchtet der Morgenstern
!!!SCT:	BWV 36(1)/5 & 36(2)/4
!!!PC#:	195
!!!AGN:	chorale
!!!ONB: Same as No. 86 and No. 305
**kern	**kern	**kern	**kern	**chordsymbol
*ICvox	*ICvox	*ICvox	*ICvox	*
*Ibass	*Itenor	*Ialto	*Isoprn	*
*I"Bass	*I"Tenor	*I"Alto	*I"Soprano	*
*>[A,A,B]	*>[A,A,B]	*>[A,A,B]	*>[A,A,B]	*>[A,A,B]
*>norep[A,B]	*>norep[A,B]	*>norep[A,B]	*>norep[A,B]	*>norep[A,B]
*>A	*>A	*>A	*>A	*>A
*clefF4	*clefGv2	*clefG2	*clefG2	*
*k[f#c#]	*k[f#c#]	*k[f#c#]	*k[f#c#]	*
*D:	*D:	*D:	*D:	*D:
*M4/4	*M4/4	*M4/4	*M4/4	*M4/4
*met(c)	*met(c)	*met(c)	*met(c)	*met(c)
*MM100	*MM100	*MM100	*MM100	*MM100
4D	4F#	4A	4d	DM
=1	=1	=1	=1	=1
4C#	4E	4A	4a	AM
8DL	8DL	4A	8f#L	DM
8C#J	8EJ	.	8eJ	AM
4BB	8F#L	4B	4d	Bm
.	8G#J	.	.	G#d
8F#L	4A	4c#	4a	F#mm
8EJ	.	.	.	F#mm
=2	=2	=2	=2	=2
8DL	4A	4f#	8.bL	Bmm
8BBJ	.	.	.	Bmm
.	.	.	32cc#LL	Bmm
.	.	.	32ddJJJ	Bmm
4E	4G#	4e	4b	EM
4AA;	4c#;	4e;	4a;	AM
4D	4d	4f#	4a	DM
=3	=3	=3	=3	=3
4GnX	4d	4g	4b	GM
8F#L	4e	4g	4cc#	C#d
8EJ	.	.	.	C#d
8F#L	8AL	4f#	4dd	DM
8G#J	8BJ	.	.	G#dm
4A	4c#	8eL	4cc#	AM
.	.	8aJ	.	AM
=4	=4	=4	=4	=4
4D	8F#L	4a	8bL	Bmm
.	8f#J	.	8ddJ	Bmm
4E	8eL	4g#	8cc#L	C#m
.	8dJ	.	8bJ	EMm
4AA;	4c#;	4e;	4a;	AM
4D	4A	4d	4f#	DM
=5	=5	=5	=5	=5
4GnX	4GnX	4d	4b	GM
4F#	4A	4d	4a	DM
4E	8BL	8dL	4g	Emm
.	8GJ	8c#J	.	C#d
4D	4A	4d	4f#	DM
=6	=6	=6	=6	=6
2AA	4.A	4d	2e	AMm
.	.	4c#	.	AMm
.	8G	.	.	AMm
2D;	2F#;	2A;	2d;	DM
=7:|!	=7:|!	=7:|!	=7:|!	=7:|!
*>B	*>B	*>B	*>B	*>B
2C#	2A	2e	2a	AM
2D;	2A;	2d;	2f#;	DM
=8	=8	=8	=8	=8
2AA	2c#	2e	2a	AM
2D;	2A;	2d;	2f#;	DM
=9	=9	=9	=9	=9
8DL	4A	4d	4f#	DM
8EJ	.	.	.	DM
8F#L	4A	4d	4f#	DM
8GJ	.	.	.	DM
8AL	4A	4c#	4e	AMm
8GJ	.	.	.	AMm
8F#L	4A	[4d	4f#	DM
8DJ	.	.	.	DM
=10	=10	=10	=10	=10
4E	4G	8dL]	4g	E(mm)
.	.	8c#J	.	C#d
8F#L	4A	4d	4f#	DM
8GJ	.	.	.	DM
4A	4A	4c#	4e	AM
8GL	4A	4d#	4f#	D#d
8F#J	.	.	.	D#d
=11	=11	=11	=11	=11
4E	8BL	4e	4g	Em
.	8c#J	.	.	C#d
8BL	4d	8dnXL	4f#	Bmm
8AJ	.	8c#J	.	Bmm
4G	8dL	4B	2e	Emm
.	16c#L	.	.	C#dm
.	16BJJ	.	.	C#dm
4A	8AL	4c#	.	AMm
.	8GJ	.	.	AMm
=12	=12	=12	=12	=12
2D;	2F#;	2A;	2d;	DM
4BB	8F#L	4f#	4dd	Bm
.	8G#J	.	.	Bm
4FF#	4A#	8f#L	4cc#	F#Mm
.	.	8eJ	.	F#Mm
=13	=13	=13	=13	=13
4GG	4B	8dL	4b	GM
.	.	8eJ	.	Em
4AA	4c#	4f#	4a	F#m
8BBL	8dL	8f#L	4g	GMM
8C#J	8eJ	8eJ	.	C#d
4D	4A	8eL	4f#	DM
.	.	8dJ	.	DM
=14	=14	=14	=14	=14
4GG	4B	8dL	2e	Emm
.	.	16c#L	.	Emm
.	.	16BJJ	.	Emm
4AA	8AL	4c#	.	AMm
.	8GJ	.	.	AMm
4DD;	4F#;	4A;	4d;	DM
==	==	==	==	==
*-	*-	*-	*-	*-
!!!hum2abc: -Q ''
!!!title: @{PC#}. @{OTL@@DE}
!!!YOR1: 371 vierstimmige Choralges&auml;nge von Johann Sebastian Bach, 
!!!YOR2: 4th ed. by Alfred D&ouml;rffel (Leipzig: Breitkopf und H&auml;rtel, 
!!!YOR2: c.1875). 178 pp. Plate "V.A.10".  reprint: J.S. Bach, 371 Four-Part 
!!!YOR4: Chorales (New York: Associated Music Publishers, Inc., c.1940).
!!!SMS: B&H, 4th ed, Alfred D&ouml;rffel, c.1875, plate V.A.10
!!!EED:  Craig Stuart Sapp
!!!EEV:  2009/05/22
!!! **chordsymbol annotations generated by the FlexibleChoraleHarmonicAnalysis package.
!!! Condit-Schultz, Ju, and Fujinaga, ISMIR (2018)
!!! Created on Sat Mar 02 11:23:32 2019
